wolterwythe/images/discord.svg

<svg width="28" height="28" viewBox="0 0 28 28" fill="none" xmlns="http://www.w3.org/2000/svg">
<path d="M25.5504 3.63781C25.5434 2.9183 25.2487 2.23052 24.7302 1.72357C24.2117 1.21662 23.5112 0.931381 22.7806 0.929688L5.20686 0.875C4.477 0.875142 3.77698 1.1603 3.26027 1.66795C2.74356 2.1756 2.45232 2.86433 2.45041 3.58312V21.4375C2.45041 22.9305 3.68759 24.0625 5.20686 24.0625H20.2196L19.4978 21.6562L25.5504 27.125V3.63781ZM17.8125 18.0365C17.8125 18.0365 17.3283 17.4683 16.924 16.9799C18.6865 16.491 19.3589 15.4219 19.3589 15.4219C18.8749 15.7381 18.3561 15.9995 17.8125 16.2012C17.1848 16.4578 16.5313 16.6483 15.8628 16.7694C14.7111 16.9777 13.5301 16.9733 12.3801 16.7562C11.7036 16.6325 11.0415 16.442 10.4038 16.1875C10.0665 16.0602 9.73843 15.9102 9.42206 15.7385C9.38152 15.7123 9.34154 15.6991 9.301 15.6723C9.27379 15.6592 9.26047 15.6461 9.24547 15.6461C9.00337 15.5138 8.86899 15.4213 8.86899 15.4213C8.86899 15.4213 9.51423 16.4653 11.2223 16.9668C10.8186 17.4688 10.3211 18.0502 10.3211 18.0502C7.34972 17.9577 6.22026 16.0557 6.22026 16.0557C6.22026 11.8415 8.15655 8.42023 8.15655 8.42023C10.0928 7.00656 11.9214 7.04648 11.9214 7.04648L12.0558 7.20508C9.63529 7.87883 8.53304 8.92227 8.53304 8.92227C8.53304 8.92227 8.82845 8.76367 9.32599 8.55203C10.7647 7.93133 11.9081 7.77273 12.3801 7.72023C12.4554 7.70481 12.532 7.69585 12.6089 7.69344C13.5099 7.5783 14.4216 7.56948 15.3248 7.66719C16.7428 7.82761 18.1167 8.25362 19.3723 8.92227C19.3723 8.92227 18.31 7.92969 16.0239 7.25703L16.2121 7.04594C16.2121 7.04594 18.054 7.00602 19.9775 8.42188C19.9775 8.42188 21.9138 11.8431 21.9138 16.0573C21.9138 16.042 20.7838 17.9441 17.8125 18.0365Z" fill="url(#paint0_linear_779_3153)"/>
<path d="M11.5603 11.9219C10.794 11.9219 10.1887 12.5694 10.1887 13.3749C10.1887 14.1805 10.8073 14.828 11.5603 14.828C12.3266 14.828 12.9318 14.181 12.9318 13.3749C12.9457 12.5677 12.3266 11.9219 11.5603 11.9219ZM16.4679 11.9219C15.7016 11.9219 15.0963 12.5694 15.0963 13.3749C15.0963 14.1805 15.7149 14.828 16.4679 14.828C17.2347 14.828 17.8395 14.181 17.8395 13.3749C17.8395 12.5688 17.2214 11.9219 16.4679 11.9219Z" fill="url(#paint1_linear_779_3153)"/>
<defs>
<linearGradient id="paint0_linear_779_3153" x1="2.45041" y1="14" x2="25.7836" y2="14.0508" gradientUnits="userSpaceOnUse">
<stop stop-color="#4C27C1"/>
<stop offset="1" stop-color="#F761DF"/>
</linearGradient>
<linearGradient id="paint1_linear_779_3153" x1="10.1887" y1="13.3749" x2="17.9164" y2="13.4253" gradientUnits="userSpaceOnUse">
<stop stop-color="#4C27C1"/>
<stop offset="1" stop-color="#F761DF"/>
</linearGradient>
</defs>
</svg>

<svg width="28" height="28" viewBox="0 0 28 28" fill="none" xmlns="http://www.w3.org/2000/svg"><path d="M25.55 3.638a2.714 2.714 0 00-.82-1.914A2.798 2.798 0 0022.78.93L5.208.875c-.73 0-1.43.285-1.947.793a2.695 2.695 0 00-.81 1.915v17.854c0 1.493 1.238 2.625 2.757 2.625H20.22l-.722-2.406 6.052 5.469V3.638zm-7.738 14.399s-.484-.569-.888-1.057c1.762-.489 2.435-1.558 2.435-1.558a7.768 7.768 0 01-1.547.78 9.742 9.742 0 01-1.95.567 9.584 9.584 0 01-3.482-.013 10.359 10.359 0 01-1.976-.569 7.924 7.924 0 01-.982-.449c-.04-.026-.08-.039-.121-.066-.027-.013-.04-.026-.056-.026a4.738 4.738 0 01-.376-.225s.645 1.044 2.353 1.546a54.762 54.762 0 01-.9 1.083c-2.972-.092-4.102-1.994-4.102-1.994 0-4.215 1.937-7.636 1.937-7.636 1.936-1.413 3.764-1.374 3.764-1.374l.135.16c-2.42.673-3.523 1.716-3.523 1.716s.295-.158.793-.37c1.439-.62 2.582-.78 3.054-.832.075-.015.152-.024.229-.027a11.592 11.592 0 012.716-.026 11.32 11.32 0 014.047 1.255s-1.062-.992-3.348-1.665l.188-.211s1.842-.04 3.765 1.376c0 0 1.937 3.421 1.937 7.635 0-.015-1.13 1.887-4.102 1.98z" fill="url(#paint0_linear_779_3153)"/><path d="M11.56 11.922c-.766 0-1.371.647-1.371 1.453s.618 1.453 1.371 1.453c.767 0 1.372-.647 1.372-1.453.014-.807-.605-1.453-1.372-1.453zm4.908 0c-.766 0-1.372.647-1.372 1.453s.619 1.453 1.372 1.453c.767 0 1.372-.647 1.372-1.453s-.619-1.453-1.372-1.453z" fill="url(#paint1_linear_779_3153)"/><defs><linearGradient id="paint0_linear_779_3153" x1="2.45" y1="14" x2="25.784" y2="14.051" gradientUnits="userSpaceOnUse"><stop stop-color="#4C27C1"/><stop offset="1" stop-color="#F761DF"/></linearGradient><linearGradient id="paint1_linear_779_3153" x1="10.189" y1="13.375" x2="17.916" y2="13.425" gradientUnits="userSpaceOnUse"><stop stop-color="#4C27C1"/><stop offset="1" stop-color="#F761DF"/></linearGradient></defs></svg>
